style/icons/folder_type_termux.svg

<?xml version="1.0" encoding="UTF-8" standalone="no"?>
<svg
   version="1.1"
   id="Layer_1"
   x="0px"
   y="0px"
   width="64px"
   height="64px"
   viewBox="0 0 64 64"
   enable-background="new 0 0 64 64"
   xml:space="preserve"
   sodipodi:docname="folder_type_termux.svg"
   inkscape:version="1.2.2 (b0a8486541, 2022-12-01)"
   xmlns:inkscape="http://www.inkscape.org/namespaces/inkscape"
   xmlns:sodipodi="http://sodipodi.sourceforge.net/DTD/sodipodi-0.dtd"
   xmlns="http://www.w3.org/2000/svg"
   xmlns:svg="http://www.w3.org/2000/svg"><defs
   id="defs184" /><sodipodi:namedview
   id="namedview182"
   pagecolor="#ffffff"
   bordercolor="#000000"
   borderopacity="0.25"
   inkscape:showpageshadow="2"
   inkscape:pageopacity="0.0"
   inkscape:pagecheckerboard="0"
   inkscape:deskcolor="#d1d1d1"
   showgrid="false"
   inkscape:zoom="7.40625"
   inkscape:cx="32.135021"
   inkscape:cy="32.135021"
   inkscape:window-width="1280"
   inkscape:window-height="656"
   inkscape:window-x="0"
   inkscape:window-y="0"
   inkscape:window-maximized="1"
   inkscape:current-layer="Layer_1" />  
<g
   style="fill:none"
   id="g413"
   transform="matrix(0.12413256,0,0,0.12413256,0.37230081,0.32596877)"><rect
     width="512"
     height="512"
     fill="#000000"
     id="rect398"
     x="0"
     y="0" /><path
     d="m 156.5,142.5 h -43 l 85,113 v 1 l -85,113 h 43 l 85,-113 v -1 z"
     fill="#ffffff"
     id="path400" /><path
     d="m 398.5,341.5 h -128 v 28 h 128 z"
     fill="#ffffff"
     id="path402" /></g></svg>

<svg width="512" height="512" viewBox="0 0 512 512" fill="none" xmlns="http://www.w3.org/2000/svg">
<rect width="512" height="512" fill="black"/>
<path d="M156.5 142.5H113.5L198.5 255.5V256.5L113.5 369.5H156.5L241.5 256.5V255.5L156.5 142.5Z" fill="white"/>
<path d="M398.5 341.5H270.5V369.5H398.5V341.5Z" fill="white"/>
</svg>
